src/public/img/icon_attach_gallery.svg

<?xml version="1.0" encoding="UTF-8" standalone="no"?>
<svg
   xmlns="http://www.w3.org/2000/svg"
   width="48"
   height="48"
   viewBox="0 0 48 48">
  
  
  <g
     id="g4426"
     transform="matrix(0.05648007,0,0,0.05648007,9.63763,9.3522655)"
     fill="currentcolor"
     >

    <g
       id="g4378">
      <g
         id="g4380">
        <path
           id="path4382"
           d="m 494.933,38.4 -409.6,0 c -9.412,0 -17.067,7.654 -17.067,17.067 l 0,17.067 -17.066,0 c -9.412,0 -17.067,7.654 -17.067,17.067 l 0,17.067 -17.066,0 C 7.654,106.667 0,114.321 0,123.733 l 0,332.8 c 0,9.412 7.654,17.067 17.067,17.067 l 409.6,0 c 9.412,0 17.067,-7.654 17.067,-17.067 l 0,-17.067 17.066,0 c 9.412,0 17.067,-7.654 17.067,-17.067 l 0,-17.067 17.067,0 c 9.412,0 17.067,-7.654 17.067,-17.067 l 0,-332.8 C 512,46.054 504.346,38.4 494.933,38.4 Z m -477.866,85.333 409.6,0 0.009,190.635 -44.783,-51.183 c -3.251,-3.721 -9.6,-3.721 -12.851,0 l -54.067,61.79 -147.176,-130.816 c -3.234,-2.884 -8.098,-2.884 -11.332,0 l -139.4,123.912 0,-194.338 z m 409.617,307.277 0,25.523 -409.617,0 0,-115.643 145.067,-128.947 147.934,131.49 c 1.69,1.51 3.942,2.193 6.204,2.142 2.278,-0.145 4.395,-1.186 5.888,-2.901 l 53.308,-60.911 51.209,58.53 0.008,90.573 c 0,0.017 -0.017,0.043 -0.017,0.068 0,0.025 0.016,0.051 0.016,0.076 z m 34.116,-8.61 -17.067,0 0,-298.667 c 0,-9.412 -7.654,-17.067 -17.067,-17.067 l -375.466,0 0,-17.066 409.6,0 0,332.8 z m 34.133,-34.133 -17.067,0 0,-298.667 c 0,-9.412 -7.654,-17.067 -17.067,-17.067 l -375.466,0 0,-17.066 409.6,0 0,332.8 z"
           inkscape:connector-curvature="0" />
      </g>
    </g>
    <g
       id="g4384">
      <g
         id="g4386">
        <path
           id="path4388"
           d="m 307.2,174.933 c -18.825,0 -34.133,15.309 -34.133,34.133 0,18.824 15.308,34.134 34.133,34.134 18.825,0 34.133,-15.309 34.133,-34.133 0,-18.824 -15.308,-34.134 -34.133,-34.134 z m 0,51.2 c -9.412,0 -17.067,-7.654 -17.067,-17.067 0,-9.412 7.654,-17.067 17.067,-17.067 9.413,0 17.067,7.654 17.067,17.067 0,9.413 -7.655,17.067 -17.067,17.067 z"
           inkscape:connector-curvature="0" />
      </g>
    </g>
  </g>
</svg>

<svg version="1.1" xmlns="http://www.w3.org/2000/svg" xmlns:xlink="http://www.w3.org/1999/xlink" x="0px" y="0px" viewBox="-256 -256 1024 1024" style="height: inherit;width: inherit; color:currentcolor;">
<g>
	<g>
		<path stroke="currentcolor" d="M494.933,38.4h-409.6c-9.412,0-17.067,7.654-17.067,17.067v17.067H51.2c-9.412,0-17.067,7.654-17.067,17.067v17.067
			H17.067C7.654,106.667,0,114.321,0,123.733v332.8c0,9.412,7.654,17.067,17.067,17.067h409.6c9.412,0,17.067-7.654,17.067-17.067
			v-17.067H460.8c9.412,0,17.067-7.654,17.067-17.067v-17.067h17.067c9.412,0,17.067-7.654,17.067-17.067v-332.8
			C512,46.054,504.346,38.4,494.933,38.4z M17.067,123.733h409.6l0.009,190.635l-44.783-51.183c-3.251-3.721-9.6-3.721-12.851,0
			l-54.067,61.79L167.799,194.159c-3.234-2.884-8.098-2.884-11.332,0L17.067,318.071V123.733z M426.684,431.01v25.523H17.067V340.89
			l145.067-128.947l147.934,131.49c1.69,1.51,3.942,2.193,6.204,2.142c2.278-0.145,4.395-1.186,5.888-2.901l53.308-60.911
			l51.209,58.53l0.008,90.573c0,0.017-0.017,0.043-0.017,0.068S426.684,430.985,426.684,431.01z M460.8,422.4h-17.067V123.733
			c0-9.412-7.654-17.067-17.067-17.067H51.2V89.6h409.6V422.4z M494.933,388.267h-17.067V89.6c0-9.412-7.654-17.067-17.067-17.067
			H85.333V55.467h409.6V388.267z" fill="currentcolor"></path>
	</g>
</g>
<g>
	<g>
		<path stroke="currentcolor" d="M307.2,174.933c-18.825,0-34.133,15.309-34.133,34.133S288.375,243.2,307.2,243.2s34.133-15.309,34.133-34.133
			S326.025,174.933,307.2,174.933z M307.2,226.133c-9.412,0-17.067-7.654-17.067-17.067c0-9.412,7.654-17.067,17.067-17.067
			s17.067,7.654,17.067,17.067C324.267,218.479,316.612,226.133,307.2,226.133z" fill="currentcolor"></path>
	</g>
</g>















</svg>
